image/restaurant.svg

<svg enable-background="new -0.258 -0.548 123.547 123.539" height="10" viewBox="-.258 -.548 123.547 123.539" width="10" xmlns="http://www.w3.org/2000/svg"><path d="m109.09 123.36c8.156 0 14.758-6.586 14.758-14.742v-94.022c0-8.156-6.602-14.758-14.758-14.758h-94.02c-8.156 0-14.758 6.602-14.758 14.758v94.023c0 8.156 6.602 14.742 14.758 14.742h94.02z" fill="#231f20"/><path d="m15.07 2.34c-6.758 0-12.258 5.5-12.258 12.258v94.023c0 6.758 5.5 12.25 12.258 12.25h94.016c6.766 0 12.258-5.492 12.258-12.25v-94.022c0-6.758-5.492-12.258-12.258-12.258h-94.02z" fill="#fff"/><g fill="#231f20"><path d="m56.711 43.301c0 3.258-2.969 6.734-6.812 6.734v55.031c0 7.805-10.656 7.805-10.656 0v-55.035c-3.75 0-7.008-2.891-7.008-7.227v-28.890463c0-2.633 4.352247-4.0432046 4.288739-1.199914l.08062 22.221753 2.965501.806233 3.007645-.806232c.228829-6.953971-.348577-15.35916-.119751-22.313131.083239-2.52963 4.295608-2.786246 4.295608-.067246v22.461l3.297518.725609 2.707335-.725609-.322577-22.393754c-.035893-2.491741 4.275362-1.191891 4.275362 1.488109v29.186645z"/><path d="m90.094 19.582v85.445c0 7.641-10.672 7.531-10.672 0v-33.240014l-5.688-.644986v-51.563c0-10.2182895 16.36-11.992 16.36 0z"/></g></svg>

<?xml version="1.0" encoding="UTF-8" standalone="no"?>
<!-- Generator: Adobe Illustrator 13.0.2, SVG Export Plug-In . SVG Version: 6.00 Build 14948)  -->

<svg
   xmlns:dc="http://purl.org/dc/elements/1.1/"
   xmlns:cc="http://creativecommons.org/ns#"
   xmlns:rdf="http://www.w3.org/1999/02/22-rdf-syntax-ns#"
   xmlns:svg="http://www.w3.org/2000/svg"
   xmlns="http://www.w3.org/2000/svg"
   xmlns:sodipodi="http://sodipodi.sourceforge.net/DTD/sodipodi-0.dtd"
   xmlns:inkscape="http://www.inkscape.org/namespaces/inkscape"
   id="Layer_1"
   style="enable-background:new -0.258 -0.548 123.547 123.539"
   xml:space="preserve"
   viewBox="-0.258 -0.548 123.547 123.539"
   version="1.1"
   y="0px"
   x="0px"
   width="10"
   height="10"
   sodipodi:docname="restaurant.svg"
   inkscape:version="0.92.3 (2405546, 2018-03-11)"><defs
   id="defs17" /><sodipodi:namedview
   pagecolor="#ffffff"
   bordercolor="#666666"
   borderopacity="1"
   objecttolerance="10"
   gridtolerance="10"
   guidetolerance="10"
   inkscape:pageopacity="0"
   inkscape:pageshadow="2"
   inkscape:window-width="1920"
   inkscape:window-height="1027"
   id="namedview15"
   showgrid="false"
   inkscape:zoom="153.24"
   inkscape:cx="3.8637056"
   inkscape:cy="2.9497795"
   inkscape:window-x="-8"
   inkscape:window-y="-8"
   inkscape:window-maximized="1"
   inkscape:current-layer="g10" />
<g
   id="g10">
	<path
   style="fill:#231F20"
   d="m109.09 123.36c8.156 0 14.758-6.586 14.758-14.742v-94.022c0-8.156-6.602-14.758-14.758-14.758h-94.02c-8.156 0-14.758 6.602-14.758 14.758v94.023c0 8.156 6.602 14.742 14.758 14.742h94.02z"
   id="path2" />
	<path
   style="fill:#FFFFFF"
   d="m15.07 2.34c-6.758 0-12.258 5.5-12.258 12.258v94.023c0 6.758 5.5 12.25 12.258 12.25h94.016c6.766 0 12.258-5.492 12.258-12.25v-94.022c0-6.758-5.492-12.258-12.258-12.258h-94.02z"
   id="path4" />
	<path
   style="fill:#231f20"
   d="m 56.711,43.301 c 0,3.258 -2.969,6.734 -6.812,6.734 v 55.031 c 0,7.805 -10.656,7.805 -10.656,0 V 50.031 c -3.75,0 -7.008,-2.891 -7.008,-7.227 V 13.913537 c 0,-2.633 4.352247,-4.0432046 4.288739,-1.199914 l 0.08062,22.221753 2.965501,0.806233 3.007645,-0.806232 C 42.806334,27.981406 42.228928,19.576217 42.457754,12.622246 42.540993,10.092616 46.753362,9.836 46.753362,12.555 V 35.016 L 50.05088,35.741609 52.758215,35.016 52.435638,12.622246 C 52.399745,10.130505 56.711,11.430355 56.711,14.110355 V 43.297 Z"
   id="path6"
   inkscape:connector-curvature="0"
   sodipodi:nodetypes="scsscsssccccscccsscs" />
	<path
   style="fill:#231f20"
   d="m 90.094,19.582 v 85.445 c 0,7.641 -10.672,7.531 -10.672,0 V 71.786986 L 73.734,71.142 V 19.579 c 0,-10.2182895 16.36,-11.992 16.36,0 z"
   id="path8"
   inkscape:connector-curvature="0"
   sodipodi:nodetypes="cssccssc" />
</g>
<metadata
   id="metadata12"><rdf:RDF><cc:Work><dc:format>image/svg+xml</dc:format><dc:type
         rdf:resource="http://purl.org/dc/dcmitype/StillImage" /><cc:license
         rdf:resource="http://creativecommons.org/licenses/publicdomain/" /><dc:publisher><cc:Agent
           rdf:about="http://openclipart.org/"><dc:title>Openclipart</dc:title></cc:Agent></dc:publisher><dc:title>NPS map pictographs part 2</dc:title><dc:date>2008-01-20T22:07:47</dc:date><dc:description>Second set of 4 sets of map pictographs for U.S. national park maps. PD US Government - National Park Service, U.S. Dept. of the Interior\n\nrest of sets:\nhttp://openclipart.org/media/files/johnny_automatic/6741\nhttp://openclipart.org/media/files/johnny_automatic/6757\nhttp://openclipart.org/media/files/johnny_automatic/6765</dc:description><dc:source>https://openclipart.org/detail/11307/nps-map-pictographs-part-2-by-johnny_automatic-11307</dc:source><dc:creator><cc:Agent><dc:title>johnny_automatic</dc:title></cc:Agent></dc:creator><dc:subject><rdf:Bag><rdf:li>cartography</rdf:li><rdf:li>externalsource</rdf:li><rdf:li>map</rdf:li><rdf:li>park</rdf:li><rdf:li>pictograph</rdf:li><rdf:li>sign</rdf:li><rdf:li>symbol</rdf:li></rdf:Bag></dc:subject></cc:Work><cc:License
       rdf:about="http://creativecommons.org/licenses/publicdomain/"><cc:permits
         rdf:resource="http://creativecommons.org/ns#Reproduction" /><cc:permits
         rdf:resource="http://creativecommons.org/ns#Distribution" /><cc:permits
         rdf:resource="http://creativecommons.org/ns#DerivativeWorks" /></cc:License></rdf:RDF></metadata></svg>
